X:1
T: The Braes of Rhynie
C:Alexander Walker
R:Strathspey
Q:128
K:D
M:4/4
L:1/16
|:A,2|DD3 F3D E3A, C3A,|DD3 D3F F3d F3D|G3B F3A EA,3 C3A,|A3d f3e d4 d3E|
D4-D2F2 EB,3 B,3E|DD3 D3F A3d F3D|G3B F3A Be3 e3A|((3B2d2B2) A2C2 D6f2|
d3a f3a eA3 c3A|d3a bagf af3 f3a|((3g2b2g2) ((3f2a2f2) e3A c3A|FA3 B3c d4 d3f|
d3a f3a eA3 c3A|d3a bagf a3f A3F|((3G2B2G2) ((3F2A2F2) BE3 E3F|DA,3 B,3C D6:|
